X:1
T:Title
%%score { ( 1 2 3 ) | ( 4 5 ) }
L:1/8
Q:1/4=112
M:4/4
K:Bb
V:1 treble nm="Grand Piano"
V:2 treble 
V:3 treble 
V:4 bass 
V:5 bass 
V:1
 z2 z _d z2 z _d | [Fd]2 [Ge]2 [Fd]2 [Ec]2 | B4 [Fd]4 | [DF]6 z2 | z2 z =B z2 z B | %5
 [Ec]2 [Ge]2 [Fd]2 [Ec]2 | [DB]4 [Fd]4 | [Ec]6 z2 | z2 z _d z2 z _d | [Fd]2 [Ge]2 [Fd]2 [Ec]2 | %10
 [DB]4 [Fd]4 | [DF]4 [DB]4 | A2 [Ge]4 [Fd]2 | [Fd]4 [Ec]4 | [DB]8- |[M:1/4] [DB]2 | %16
[M:9/8][K:treble] F3 G3 B3 |[M:4/4] [Fd]4 [Fd]4 | [Fd]6 z2 | [Ec]BcB [Ec]2 [B,DB]2 |[M:3/4] F6 | %21
[M:1/4] [DB]2 |[M:4/4] [EB]2 [A,EA]2 [EA]2 [Ec]2 |[M:3/4] [Ee]6 |[M:1/4] [EA]2 | %25
[M:4/4] [DG]2 [B,DF]2 [DF]2 [B,DB]2 | [Fd]2 F2 G2 B2 | [Fd]4 [Fd]4 | [Fd]6 z2 | %29
 [Ec]BcB [Ec]2 [B,DB]2 |[M:3/4] F6 |[M:1/4] [FB]2 |[M:4/4] [EA]2 [Ge]4 [Fd]2 | [Fd]4 [Ec]4 | %34
 [DB]8- | [DB]4 z4 |] %36
V:2
 [Fd]4 [F=d]4 | x8 | D2 [B,D]2 z2 [B,D]2 | x8 | [Ec]4 [Ec]4 | x8 | x8 | x8 | [Fd]4 [F=d]4 | x8 | %10
 z2 B,2 z2 B,2 | z2 B,2 z2 B,2 | x8 | x8 | z2 G,2 F,2 D,2 |[M:1/4] B,,2 |[M:9/8][K:treble] x9 | %17
[M:4/4] z2 [B,D]2 z2 [B,D]2 | z2 [B,D]2 z2 [Ec]2 | x8 |[M:3/4] D2 [B,D][B,D] [B,D]2 |[M:1/4] x2 | %22
[M:4/4] x8 |[M:3/4] z2 A,A, A,2 |[M:1/4] x2 |[M:4/4] x8 | x8 | z2 [B,D]2 z2 [B,D]2 | %28
 z2 [B,D]2 z2 [Ec]2 | x8 |[M:3/4] D2 [B,D][B,D] [B,D]2 |[M:1/4] x2 |[M:4/4] x8 | x8 | %34
 z2 G,2 F,2 D,2 | B,,4 z4 |] %36
V:3
 z2 [B,D]2 z2 [B,D]2 | x8 | x8 | x8 | z2 A,2 z2 A,2 | x8 | x8 | x8 | z2 [B,D]2 z2 [B,D]2 | x8 | %10
 x8 | x8 | x8 | x8 | x8 |[M:1/4] x2 |[M:9/8][K:treble] x9 |[M:4/4] x8 | x8 | x8 |[M:3/4] x6 | %21
[M:1/4] x2 |[M:4/4] x8 |[M:3/4] x6 |[M:1/4] x2 |[M:4/4] x8 | x8 | x8 | x8 | x8 |[M:3/4] x6 | %31
[M:1/4] x2 |[M:4/4] x8 | x8 | x8 | x8 |] %36
V:4
 B,,2 z =E F,,2 z E | B,,2 [F,B,]2 F,,2 [F,A,]2 | B,,2 F,2 F,,2 F,2 | B,,2 B,2 A,2 G,2 | %4
 z2 F,2 z2 F,2 | F,,2 F,2 G,2 A,2 | B,2 F,2 D,2 B,,2 | F,2 G,2 A,2 F,2 | B,,2 z =E F,,2 z E | %9
 B,,2 [F,B,]2 F,,2 [F,A,]2 | B,,2 F,2 F,,2 F,2 | B,,2 F,2 F,,2 F,2 | [C,C]2 [F,A,]2 F,,2 [F,A,]2 | %13
 [F,,F,]2 [G,,G,]2 [A,,A,]2 [F,,F,]2 | [B,,B,]2 G,,2 F,,2 D,,2 |[M:1/4] B,,,2 | %16
[M:9/8] F,3 G,3 B,3 |[M:4/4] B,,2 F,2 F,,2 F,2 | B,,2 F,2 F,,2 [F,A,]2 | z DED B,,2 F,2 | %20
[M:3/4] B,,2 F,F, F,2 |[M:1/4] B,,2 |[M:4/4] C,2 F,2 F,,2 [F,A,]2 |[M:3/4] C,2 F,F, F,2 | %24
[M:1/4] F,2 |[M:4/4] B,,2 F,2 F,,2 F,2 | B,,2 F,2 G,2 B,2 | B,,2 F,2 F,,2 F,2 | %28
 B,,2 F,2 F,,2 [F,A,]2 | z DED B,,2 F,2 |[M:3/4] B,,2 F,F, F,2 |[M:1/4] B,2 | %32
[M:4/4] C,2 [F,A,]2 F,,2 [F,A,]2 | [F,,F,]2 [G,,G,]2 [A,,A,]2 [F,,F,]2 | [B,,B,]2 G,,2 F,,2 D,,2 | %35
 A,,,4 z4 |] %36
V:5
 z2 F,2 z2 F,2 | x8 | x8 | x8 | F,,2 z D F,,2 z D | x8 | x8 | x8 | z2 F,2 z2 F,2 | x8 | x8 | x8 | %12
 x8 | x8 | x8 |[M:1/4] x2 |[M:9/8] x9 |[M:4/4] x8 | x8 | B,,2 [F,B,]2 z4 |[M:3/4] x6 |[M:1/4] x2 | %22
[M:4/4] x8 |[M:3/4] x6 |[M:1/4] x2 |[M:4/4] x8 | x8 | x8 | x8 | B,,2 [F,B,]2 z4 |[M:3/4] x6 | %31
[M:1/4] x2 |[M:4/4] x8 | x8 | x8 | x8 |] %36

